symbols/web/add_comment/materialsymbolsoutlined/add_comment_grad200_40px.svg

<svg xmlns="http://www.w3.org/2000/svg" height="40" width="40"><path d="M18.25 23.333h3.5V18h5.333v-3.5H21.75V9.167h-3.5V14.5h-5.333V18h5.333Zm-15.792 14.5V5.625q0-1.417 1.042-2.458 1.042-1.042 2.458-1.042h28.084q1.416 0 2.458 1.042 1.042 1.041 1.042 2.458v21.333q0 1.375-1.042 2.438-1.042 1.062-2.458 1.062H9.833Zm3.5-8.458 2.417-2.417h25.667V5.625H5.958Zm0-23.75v23.75Z"/></svg>

<svg xmlns="http://www.w3.org/2000/svg" height="40" width="40"><path d="M18.25 23.333H21.75V18H27.083V14.5H21.75V9.167H18.25V14.5H12.917V18H18.25ZM2.458 37.833V5.625Q2.458 4.208 3.5 3.167Q4.542 2.125 5.958 2.125H34.042Q35.458 2.125 36.5 3.167Q37.542 4.208 37.542 5.625V26.958Q37.542 28.333 36.5 29.396Q35.458 30.458 34.042 30.458H9.833ZM5.958 29.375 8.375 26.958H34.042Q34.042 26.958 34.042 26.958Q34.042 26.958 34.042 26.958V5.625Q34.042 5.625 34.042 5.625Q34.042 5.625 34.042 5.625H5.958Q5.958 5.625 5.958 5.625Q5.958 5.625 5.958 5.625ZM5.958 5.625Q5.958 5.625 5.958 5.625Q5.958 5.625 5.958 5.625Q5.958 5.625 5.958 5.625Q5.958 5.625 5.958 5.625V26.958Q5.958 26.958 5.958 26.958Q5.958 26.958 5.958 26.958V29.375Z"/></svg>
